X:150
T: London Lasses
M: 4/4
L: 1/8
R: Reel
K: G
G3 B d2 Bd|ea(3aga eg g2|G3 B d2 Bd|egdB AGEF|
G3 B d2 Bd|eaag egga|bgaf egfa|gedB AGEF :|
g3 f efge|dG (3GFG BGBd|g3 f efge|dBGA BA A2|
g2 fg efge|dB (3BAB dega|bgaf egfa|gedB AGEF :|
